X:1
T:O qui aura
T:Claude Goudimel
T:Source : Livre VII de chansons nouvelles à 4---Paris---N.du Chemin---1550. Editor : André Vierendeels (26/01/18). Notes : Original clefs : C1, C3, C4, F4 Original note values have been halved Editorial accidentals above the stave  
T:O qui aura
T:©
T:©
T:©
C:Claude Goudimel
Z:©
%%score [ 1 2 3 4 ]
L:1/8
Q:1/4=120
M:2/2
K:C
V:1 treble nm="Soprano" snm="S"
V:2 treble nm="Alto" snm="A"
V:3 treble-8 nm="Tenor" snm="T"
V:4 bass nm="Bass" snm="B"
V:1
 z8 | G4 G2 G2 | E2 E2 F2 F2 | E2 E2 D4 | C4 z2 G2 | G2 G2 AGAB | c2 c2 B2 B2 | G2 G4 F2 | %8
w: |O qui au-|ra sur mon heur|ad- van- ta-|ge, o|qui pour- ra, _ _ _|_ o qui pour-|ra en lieu|
 G4 A2 c2 | BA d3 c c2- | c2 B2 c4- | c4 z2 G2 | G2 G2 E2 E2 | F2 F2 E2 E2 | D4 C4 | z2 G2 G2 G2 | %16
w: si hault at-|tain- * * * *|* * dre,|_ que|d'es- tre'a- my d'u-|ne da- me tant|sai- ge,|et de beaul-|
 AGAB c2 c2 | B2 B2 G2 G2- | G2 F2 G4 | A2 c2 BA d2- | dc c4 B2 | c2 e2 e2 e2 | dcBA B2 B2 | %23
w: té, _ _ _ _ et|de beaul- té qu'Ap-|* pel- les|n'eut sceu pain- * *||dre: per- fai- cte'as-|sez _ _ _ _ el-|
 c2 c2 B2 A2- | A2 G4 F2 | G2 G2 A4 | A4 c3 B | A2 G2 G2 F2 | G4 z2 G2 | AGAB c2 c2 | BAGF E2 G2 | %31
w: l'est pour deux con-|* train- *|dre en son|a- mour d'un|seul traict de ses|yeulx et|qu'il _ _ _ _ me|faict _ _ _ _ leur|
 A2 G2 G2 F2 | G4 G2 G2 | c2 c2 BAGF | E2 G2 G2 G2 | F2 F2 E2 c2 | c2 B2 A2 A2 | G8- | G8- | G8 |] %40
w: ia- lou- zie crain-|dre, con- fes-|ser lors qu'ay _ _ _|_ à moy trop|_ plus qu'eulx, à|moy trop _ plus|qu'eulx.|_||
V:2
 D4 D2 D2 | B,2 B,2 E3 D | C2 B,2 C2 D2- | DC C4 B,2 | C2 E2 E2 E2 | DCDE F2 F2 | G6 G2 | %7
w: O qui au-|ra sur mon heur|ad- van- ta- *||ge, o qui pour-|ra _ _ _ _ en|lieu si|
 E3 D E2 C2- | C2 B,2 C2 G2 | G2 G2 A2 F2 | G4 E2 C2 | C2 C2 B,2 B,2 | E3 D C2 B,2 | C2 D3 C C2- | %14
w: hault at- tain- *|* * dre, en|lieu si hault at-|tain- dre, que|d'es- tre'a- my d'u-|ne da- me si|sai- * * *|
 C2 B,2 C2 E2 | E2 E2 DCDE | F2 F2 G4- | G2 G2 E3 D | E2 C4 B,2 | C2 G2 G2 G2 | A2 F2 G4 | %21
w: * * ge, et|de beaul- té _ _ _|_ qu'Ap- pel-|* les n'eust sceu|pain- * *|dre, qu'A- pel- les|n'eust seu pain-|
 E4 z2 G2 | G2 G2 G4 | z2 G2 G2 F2 | D2 E3 D C2 | B,2 D2 F4 | F4 G3 F | F2 D2 D2 D2 | %28
w: dre: per-|fai- cte'as- sez|el- l'est pour|deux con- * train-|dre en son|a- mour d'un|seul traict de ses|
 B,A,B,C D2 D2 | F2 F2 EDEF | G2 G,4 C2- | C2 C2 B,2 C2 | D4 E2 E2 | G2 G2 G4 | z2 D2 E2 C2 | %35
w: y'eulx _ _ _ _ et|qui me faict _ _ _|_ leur ia-|* lou- zie crain-|dre, con fes-|ser lors qu'ay|à moy trop|
 D2 D2 G,2 G2 | G2 G2 E4- | E4 z2 C2 | B,2 C2 D2 D2 | E8 |] %40
w: _ plus qu'eulx, à|moy trop plus,|_ à|moy trop _ plus|qu'eulx.|
V:3
 z4 G4 | G2 G2 E2 E2 | A3 G A2 B2 | c4 G2 G2 | A2 G2 c4- | c2 B2 cBcd | e2 e2 d4 | z2 c4 c2 | %8
w: O|qui au- ra sur|mon heur ad- van|ta- ge, o|qui pour- ra,|_ o qui _ _ _|_ pour- ra,|en lieu|
 d4 f2 e2 | dcde fedc | d4 c4 | z2 G2 G2 G2 | E2 E2 A3 G | A2 B2 c4 | G2 G2 A2 G2 | c6 B2 | %16
w: si hault at-|tain- * * * * * * *|* dre,|que d'es- tre'a-|my d'u- ne da-|me tant sai-|ge, et de beaul-|té, et|
 cBcd e2 e2 | d4 z2 c2- | c2 c2 d4 | f2 e2 dcde | fedc d4 | c2 c2 c2 c2 | GABc d2 d2 | e6 c2 | %24
w: de _ _ _ _ beaul-|té, qu'Ap-|* pel- les|n'eut sceu pain- * * *||dre: per- fai- ct'as-|sez _ _ _ _ el-|l'est pour|
 B2 B2 c4 | d2 B2 c4 | d4 e3 d | c2 B2 A2 A2 | G4 z4 | z2 c2 c2 c2 | d4 z2 e2 | f2 e2 d2 c2- | %32
w: deux con- train-|dre en son|a- mour d'un|seul traict de ses|yeulx,|et qui me|faict leur|ia- lo- zie crain-|
 c2 B2 c2 c2 | e2 e2 dcBA | G2 B2 c2 G2 | A2 B2 c2 e2 | d2 d2 c4- | c2 B2 c2 e2 | d2 c4 B2 | c8 |] %40
w: * * dre, con-|fes- ser lors _ _ _|_ qu'ay à moy|trop plus qu'eulx, con-|fes- ser lors|_ qu'ay à moy|trop plus _|qy'eulx.|
V:4
 z8 | z8 | z8 | z8 | z2 C,2 C,2 C,2 | G,4 F,4 | C,2 C,2 G,2 G,,2 | C,4 A,,4 | G,,2 G,2 F,2 C,2 | %9
w: ||||O qui pour-|ra, o|qui pour- ra en|lieu si|hault, en lieu si|
 G,2 G,2 F,2 A,2 | G,4 C,B,,C,D, | E,D,E,F, G,F,E,D, | C,4 z4 | z8 | z4 z2 C,2 | C,2 C,2 G,4 | %16
w: hault, si hault at-|tain- * * * *||dre,||et|de beaul- té,|
 F,4 C,2 C,2 | G,2 G,,2 C,4 | A,,2 A,,2 G,,2 G,2 | F,2 C,2 G,4 | F,2 A,2 G,4 | C,8 | %22
w: et de beaul-|té qu'Ap- pel-|les n'eust sceu, qu'Ap-|pel- les n'eust|sceu pain- *|dre:|
 z2 G,2 G,2 G,2 | C,2 C,2 E,2 F,2 | G,2 G,2 A,4 | G,2 G,2 F,4 | D,4 C,3 D, | F,2 G,2 D,2 D,2 | %28
w: per- fai- ct'as-|sez el- l'est pour|deux con- train-|dre en son|a- mour d'un|seul traict de ses|
 G,,2 G,2 G,2 G,2 | F,3 E,/D,/ C,2 C,2 | G,,2 G,,2 C,2 C,2 | F,2 C,2 G,2 A,2 | G,4 C,2 C,2 | %33
w: yeulx, et qui me|faict _ _ _ et|qui me faict, leur|ia- lou- zie crain-|* dre, con-|
 C,D,E,F, G,2 G,2 | C,2 G,,2 C,2 E,2 | D,2 D,2 C,2 C,2 | G,,2 G,,2 A,,3 B,, | C,D, E,4 D,C, | %38
w: fes- * * * * ser|lors qu'ay à moy|trop plus qu'eulx, à|moy trop _ _|_ _ _ _ _|
 G,4 G,4 | C,8 |] %40
w: * plus|qu'eulx.|

